X: 16092
T: Green Fields Of Woodford, The
R: jig
M: 6/8
K: Gmajor
dBA G2E|EDE GAB|edB dBA|~B3 ege|
dBA G2E|EDE GAB|AGE ~A3|GED ~D2d|
dBA G2E|EDE GAB|edB dBA|B/c/de ege|
dBA G2E|EDE GAB|AGE ~A3|GED Ddc||
BGG dGG|edB dBA|BGG dGG|edB AGA|
BGG dGG|edB dBA|GAB AGE|GED ~D2A|
B2G dGG|edB dBA|BGG deg|edB ABc|
~B3 deg|age dBA|GAB AGE|GED ~D2d||

